X:1
T:Title
%%score ( 1 2 ) { 3 | ( 4 5 ) }
L:1/8
Q:1/4=108
M:4/4
K:Ab
V:1 treble nm="Grand Piano, Staff 1"
V:2 treble 
V:3 bass nm="Choir Pad, Staff 2"
V:4 bass 
V:5 bass 
V:1
 z4 z2 F2 | [=EG]2 [FA]4 [EG]2 | [Gc]2 [Fc]2 [FB]2 [FA]2 | [FA]2 [=EG]6 | z4 z2 F2 | %5
 [=EG]2 [FA]2 [FA]2 [EG]2 | [Gc]2 [Fc]2 [FB]2 [FA]2 | [FA]2 [=EG]6 | [EA][GB] [Ac]2 [=Ec]2 [Fc]2 | %9
 [FB]2 c2- [=Ec]2 [FA]2 | [Ac]2 [Ge]2 [Ec]2 [EB]2 | [EA]2 [EB]6 | GA [EB]2 [=DB]2 [EB]2 | %13
 [EG]2 A2 B2 [Ec]2 | [FA]2 B-[=EB] [FA]2 [FG]2 | [=EG]2 [CF]6- | [CF]2 z2 z4 |] %17
V:2
 [CF]2 [DF]2 [C=E]2 C=D | x8 | x8 | x8 | [CF]2 [DF]2 [C=E]2 C=D | x8 | x8 | x8 | x8 | z2 F2 z4 | %10
 x8 | x8 | E2 z2 z4 | z2 E4 z2 | z2 .F2 z4 | x8 | x8 |] %17
V:3
 A,2 B,2 G,2 A,2 | B,2 C4 C2 | G,2 A,2 B,2 C2 | =D2 G,6 | A,2 B,2 G,2 A,2 | %5
 B,2[K:treble] C2 C2 C2 | G,2 A,2 B,2 C2 | =D2 G,6 | CD E2[K:bass] B,2 A,2 | F,2 G,2 C2 C2 | %10
 A,2 B,2 A,2 G,2 | A,2 G,6 | B,A, G,2 A,2 B,2 | B,2[K:treble] C2 D2 C2 | C2 B,2 C2 C2- | C2 A,6- | %16
 A,2 z2 z4 |] %17
V:4
 F,2 B,,2 C,B,, A,,2 | G,,2 F,,2 A,,2 C,2 | =E,2 F,2 D,2 C,2 | _C,2 =C,6 | F,2 B,,2 C,B,, A,,2 | %5
 G,,2 F,,2 A,,2 C,2 | =E,2 F,2 D,2 C,2 | _C,2 =C,6 | z B, A,2 G,2 F,2 | D,2 C,4 F,2 | %10
 F,2 E,2 A,,2 D,2 | C,2 E,6 | E,2 E,2 F,2 G,2 | E,D, C,2 G,,2 A,,2 | F,,2 G,,2 A,,B,, C,2 | %15
 z B, F,,6- | F,,2 z2 z4 |] %17
V:5
 x8 | x8 | x8 | x8 | x8 | x8 | x8 | x8 | x8 | x8 | x8 | x8 | x8 | x8 | x8 | C,2 z2 z4 | x8 |] %17

